lib/assets/svg/button/my_add_to_google_wallet_add-wallet-badge.svg

<svg fill="none" height="55" viewBox="0 0 202 55" width="202" xmlns="http://www.w3.org/2000/svg" xmlns:xlink="http://www.w3.org/1999/xlink"><linearGradient id="a" gradientUnits="userSpaceOnUse" x1="37.2843" x2="18.7823" y1="34.0448" y2="55.7227"><stop offset="0" stop-color="#4285f4"/><stop offset="1" stop-color="#1b74e8"/></linearGradient><rect fill="#1f1f1f" height="54" rx="27" width="201" x=".5" y=".5"/><path d="m57 23.791h-36v-5.6454c0-3.0647 2.6422-5.6455 5.7798-5.6455h24.4404c3.1376 0 5.7798 2.5808 5.7798 5.6455z" fill="#34a853"/><path d="m57 29h-36v-6c0-3.2571 2.6422-6 5.7798-6h24.4404c3.1376 0 5.7798 2.7429 5.7798 6z" fill="#fbbc04"/><path d="m57 34h-36v-6c0-3.2571 2.6422-6 5.7798-6h24.4404c3.1376 0 5.7798 2.7429 5.7798 6z" fill="#ea4335"/><path d="m21 25.2409 22.8493 5.1616c2.6302.6452 5.5891 0 7.726-1.613l5.4247-3.8712v12.0974c0 3.0647-2.6301 5.4842-5.7534 5.4842h-24.4932c-3.1233 0-5.7534-2.4195-5.7534-5.4842z" fill="url(#a)"/><path d="m74.46 21.708c-.6673 0-1.2957-.1213-1.885-.364-.5807-.2427-1.0963-.5807-1.547-1.014-.4507-.442-.806-.9577-1.066-1.547-.2513-.598-.377-1.2437-.377-1.937s.1257-1.3347.377-1.924c.26-.598.611-1.1137 1.053-1.547.4507-.442.9707-.7843 1.56-1.027s1.2177-.364 1.885-.364c.7107 0 1.365.1257 1.963.377.6067.2513 1.1137.6023 1.521 1.053l-.988.975c-.3033-.338-.6673-.598-1.092-.78-.416-.182-.884-.273-1.404-.273-.6153 0-1.183.1473-1.703.442-.52.286-.9403.6933-1.261 1.222-.312.52-.468 1.1353-.468 1.846s.1603 1.3303.481 1.859c.3207.52.741.9273 1.261 1.222.52.286 1.0877.429 1.703.429.5633 0 1.0747-.104 1.534-.312.4593-.2167.8277-.52 1.105-.91.286-.39.4593-.858.52-1.404h-3.185v-1.261h4.524c.052.234.078.481.078.741v.013c0 .9013-.1993 1.69-.598 2.366-.39.6673-.9317 1.1873-1.625 1.56s-1.482.559-2.366.559zm8.7749 0c-.6847 0-1.287-.156-1.807-.468s-.9273-.7323-1.222-1.261-.442-1.1267-.442-1.794c0-.6587.1473-1.2523.442-1.781.2947-.5373.702-.962 1.222-1.274s1.1223-.468 1.807-.468c.676 0 1.274.156 1.794.468s.9273.7367 1.222 1.274c.2947.5287.442 1.1223.442 1.781 0 .6673-.1473 1.2653-.442 1.794s-.702.949-1.222 1.261-1.118.468-1.794.468zm0-1.287c.364 0 .702-.0867 1.014-.26.312-.182.5633-.4377.754-.767.1993-.338.299-.741.299-1.209s-.0997-.8667-.299-1.196c-.1907-.338-.442-.5937-.754-.767-.312-.182-.65-.273-1.014-.273s-.7063.091-1.027.273c-.312.1733-.5677.429-.767.767-.1907.3293-.286.728-.286 1.196s.0953.871.286 1.209c.1993.3293.455.585.767.767.3207.1733.663.26 1.027.26zm7.8711 1.287c-.6847 0-1.287-.156-1.807-.468s-.9273-.7323-1.222-1.261-.442-1.1267-.442-1.794c0-.6587.1473-1.2523.442-1.781.2947-.5373.702-.962 1.222-1.274s1.1223-.468 1.807-.468c.676 0 1.274.156 1.794.468s.9273.7367 1.222 1.274c.2947.5287.442 1.1223.442 1.781 0 .6673-.1473 1.2653-.442 1.794s-.702.949-1.222 1.261-1.118.468-1.794.468zm0-1.287c.364 0 .702-.0867 1.014-.26.312-.182.5633-.4377.754-.767.1993-.338.299-.741.299-1.209s-.0997-.8667-.299-1.196c-.1907-.338-.442-.5937-.754-.767-.312-.182-.65-.273-1.014-.273s-.7063.091-1.027.273c-.312.1733-.5677.429-.767.767-.1907.3293-.286.728-.286 1.196s.0953.871.286 1.209c.1993.3293.455.585.767.767.3207.1733.663.26 1.027.26zm7.7411 4.095c-.5807 0-1.0833-.0953-1.508-.286-.416-.182-.754-.4203-1.014-.715-.26-.286-.4463-.5807-.559-.884l1.3-.546c.1387.3467.3597.6283.663.845.312.2253.6847.338 1.118.338.6067 0 1.0833-.182 1.4299-.546.355-.364.533-.8797.533-1.547v-.637h-.078c-.208.312-.498.5633-.8709.754-.364.182-.78.273-1.248.273-.5633 0-1.079-.143-1.547-.429s-.845-.6847-1.131-1.196c-.286-.52-.429-1.1267-.429-1.82 0-.702.143-1.3087.429-1.82.286-.52.663-.923 1.131-1.209s.9837-.429 1.547-.429c.468 0 .884.0953 1.248.286.3729.1907.6629.442.8709.754h.078v-.832h1.339v6.279c0 .7193-.143 1.3303-.429 1.833-.277.5027-.663.884-1.157 1.144s-1.0659.39-1.7159.39zm.013-4.225c.3467 0 .6673-.0823.962-.247.2949-.1733.5329-.4203.7149-.741.182-.3293.273-.7237.273-1.183 0-.4767-.091-.8753-.273-1.196-.182-.3293-.42-.5763-.7149-.741-.2947-.1647-.6153-.247-.962-.247s-.6717.0867-.975.26c-.2947.1647-.533.4073-.715.728s-.273.7193-.273 1.196c0 .468.091.8667.273 1.196.182.3207.4203.5633.715.728.3033.1647.6283.247.975.247zm4.9449 1.209v-9.308h1.404v9.308zm6.024.208c-.65 0-1.23-.1517-1.742-.455-.511-.3033-.914-.7193-1.209-1.248-.286-.5287-.429-1.131-.429-1.807 0-.6327.139-1.2177.416-1.755.278-.5373.663-.9663 1.157-1.287.503-.3293 1.079-.494 1.729-.494.685 0 1.266.1473 1.742.442.486.2947.854.6977 1.105 1.209.252.5113.377 1.0877.377 1.729 0 .0953-.004.182-.013.26 0 .078-.004.1387-.013.182h-5.122c.07.6587.299 1.1527.689 1.482.399.3293.85.494 1.352.494.451 0 .824-.0997 1.118-.299.295-.208.529-.4637.702-.767l1.157.559c-.286.52-.676.9447-1.17 1.274-.494.3207-1.109.481-1.846.481zm-.065-5.85c-.468 0-.866.143-1.196.429-.329.286-.55.6673-.663 1.144h3.679c-.017-.2253-.091-.4593-.221-.702s-.329-.4463-.598-.611c-.26-.1733-.593-.26-1.001-.26zm8.926 5.642-2.496-9.308h1.586l1.482 6.045.156.806h.078l.195-.806 1.872-6.045h1.43l1.794 6.045.195.793h.078l.156-.793 1.482-6.045h1.573l-2.457 9.308h-1.508l-1.781-6.175-.208-.871h-.078l-.221.871-1.859 6.175zm12.191.208c-.476 0-.901-.091-1.274-.273-.372-.1907-.663-.455-.871-.793s-.312-.7237-.312-1.157c0-.468.122-.8667.364-1.196.252-.338.585-.5937 1.001-.767s.876-.26 1.378-.26c.416 0 .78.039 1.092.117.321.078.564.1603.728.247v-.351c0-.4333-.156-.78-.468-1.04s-.715-.39-1.209-.39c-.338 0-.658.078-.962.234-.303.1473-.546.351-.728.611l-.962-.741c.286-.3987.663-.7107 1.131-.936.477-.234.997-.351 1.56-.351.962 0 1.703.2383 2.223.715.52.468.78 1.1267.78 1.976v4.147h-1.365v-.819h-.078c-.173.2687-.433.507-.78.715-.346.208-.762.312-1.248.312zm.247-1.144c.364 0 .685-.0867.962-.26.278-.1733.494-.3987.65-.676.165-.286.247-.5937.247-.923-.199-.1127-.433-.2037-.702-.273-.268-.078-.554-.117-.858-.117-.572 0-.979.117-1.222.351-.242.2253-.364.5027-.364.832 0 .312.117.5677.351.767s.546.299.936.299zm4.783.936v-9.308h1.404v9.308zm3.072 0v-9.308h1.404v9.308zm6.025.208c-.65 0-1.231-.1517-1.742-.455s-.914-.7193-1.209-1.248c-.286-.5287-.429-1.131-.429-1.807 0-.6327.139-1.2177.416-1.755s.663-.9663 1.157-1.287c.503-.3293 1.079-.494 1.729-.494.685 0 1.265.1473 1.742.442.485.2947.854.6977 1.105 1.209s.377 1.0877.377 1.729c0 .0953-.004.182-.013.26 0 .078-.004.1387-.013.182h-5.122c.069.6587.299 1.1527.689 1.482.399.3293.849.494 1.352.494.451 0 .823-.0997 1.118-.299.295-.208.529-.4637.702-.767l1.157.559c-.286.52-.676.9447-1.17 1.274-.494.3207-1.109.481-1.846.481zm-.065-5.85c-.468 0-.867.143-1.196.429s-.55.6673-.663 1.144h3.679c-.017-.2253-.091-.4593-.221-.702s-.329-.4463-.598-.611c-.26-.1733-.594-.26-1.001-.26zm5.025 3.718v-3.484h-1.157v-1.222h1.157v-1.872h1.404v1.872h1.625v1.222h-1.625v3.185c0 .3293.065.5807.195.754.139.1733.369.26.689.26.165 0 .304-.0217.416-.065.122-.0433.243-.104.364-.182v1.365c-.147.0607-.303.1083-.468.143-.164.0347-.359.052-.585.052-.615 0-1.105-.1777-1.469-.533-.364-.364-.546-.8623-.546-1.495z" fill="#fff"/><rect height="54" rx="27" stroke="#747775" width="201" x=".5" y=".5"/></svg>

<svg width="202" height="55" viewBox="0 0 202 55" fill="none" xmlns="http://www.w3.org/2000/svg">
<rect x="0.5" y="0.5" width="201" height="54" rx="27" fill="#1F1F1F"/>
<path d="M57 23.791H21V18.1456C21 15.0809 23.6422 12.5001 26.7798 12.5001H51.2202C54.3578 12.5001 57 15.0809 57 18.1456V23.791Z" fill="#34A853"/>
<path d="M57 29H21V23C21 19.7429 23.6422 17 26.7798 17H51.2202C54.3578 17 57 19.7429 57 23V29Z" fill="#FBBC04"/>
<path d="M57 34H21V28C21 24.7429 23.6422 22 26.7798 22H51.2202C54.3578 22 57 24.7429 57 28V34Z" fill="#EA4335"/>
<path d="M21 25.2409L43.8493 30.4025C46.4795 31.0477 49.4384 30.4025 51.5753 28.7895L57 24.9183V37.0157C57 40.0804 54.3699 42.4999 51.2466 42.4999H26.7534C23.6301 42.4999 21 40.0804 21 37.0157V25.2409Z" fill="url(#paint0_linear_1819_24510)"/>
<path d="M74.46 21.708C73.7927 21.708 73.1643 21.5867 72.575 21.344C71.9943 21.1013 71.4787 20.7633 71.028 20.33C70.5773 19.888 70.222 19.3723 69.962 18.783C69.7107 18.185 69.585 17.5393 69.585 16.846C69.585 16.1527 69.7107 15.5113 69.962 14.922C70.222 14.324 70.573 13.8083 71.015 13.375C71.4657 12.933 71.9857 12.5907 72.575 12.348C73.1643 12.1053 73.7927 11.984 74.46 11.984C75.1707 11.984 75.825 12.1097 76.423 12.361C77.0297 12.6123 77.5367 12.9633 77.944 13.414L76.956 14.389C76.6527 14.051 76.2887 13.791 75.864 13.609C75.448 13.427 74.98 13.336 74.46 13.336C73.8447 13.336 73.277 13.4833 72.757 13.778C72.237 14.064 71.8167 14.4713 71.496 15C71.184 15.52 71.028 16.1353 71.028 16.846C71.028 17.5567 71.1883 18.1763 71.509 18.705C71.8297 19.225 72.25 19.6323 72.77 19.927C73.29 20.213 73.8577 20.356 74.473 20.356C75.0363 20.356 75.5477 20.252 76.007 20.044C76.4663 19.8273 76.8347 19.524 77.112 19.134C77.398 18.744 77.5713 18.276 77.632 17.73H74.447V16.469H78.971C79.023 16.703 79.049 16.95 79.049 17.21V17.223C79.049 18.1243 78.8497 18.913 78.451 19.589C78.061 20.2563 77.5193 20.7763 76.826 21.149C76.1327 21.5217 75.344 21.708 74.46 21.708ZM83.2349 21.708C82.5502 21.708 81.9479 21.552 81.4279 21.24C80.9079 20.928 80.5006 20.5077 80.2059 19.979C79.9112 19.4503 79.7639 18.8523 79.7639 18.185C79.7639 17.5263 79.9112 16.9327 80.2059 16.404C80.5006 15.8667 80.9079 15.442 81.4279 15.13C81.9479 14.818 82.5502 14.662 83.2349 14.662C83.9109 14.662 84.5089 14.818 85.0289 15.13C85.5489 15.442 85.9562 15.8667 86.2509 16.404C86.5456 16.9327 86.6929 17.5263 86.6929 18.185C86.6929 18.8523 86.5456 19.4503 86.2509 19.979C85.9562 20.5077 85.5489 20.928 85.0289 21.24C84.5089 21.552 83.9109 21.708 83.2349 21.708ZM83.2349 20.421C83.5989 20.421 83.9369 20.3343 84.2489 20.161C84.5609 19.979 84.8122 19.7233 85.0029 19.394C85.2022 19.056 85.3019 18.653 85.3019 18.185C85.3019 17.717 85.2022 17.3183 85.0029 16.989C84.8122 16.651 84.5609 16.3953 84.2489 16.222C83.9369 16.04 83.5989 15.949 83.2349 15.949C82.8709 15.949 82.5286 16.04 82.2079 16.222C81.8959 16.3953 81.6402 16.651 81.4409 16.989C81.2502 17.3183 81.1549 17.717 81.1549 18.185C81.1549 18.653 81.2502 19.056 81.4409 19.394C81.6402 19.7233 81.8959 19.979 82.2079 20.161C82.5286 20.3343 82.8709 20.421 83.2349 20.421ZM91.106 21.708C90.4213 21.708 89.819 21.552 89.299 21.24C88.779 20.928 88.3717 20.5077 88.077 19.979C87.7823 19.4503 87.635 18.8523 87.635 18.185C87.635 17.5263 87.7823 16.9327 88.077 16.404C88.3717 15.8667 88.779 15.442 89.299 15.13C89.819 14.818 90.4213 14.662 91.106 14.662C91.782 14.662 92.38 14.818 92.9 15.13C93.42 15.442 93.8273 15.8667 94.122 16.404C94.4167 16.9327 94.564 17.5263 94.564 18.185C94.564 18.8523 94.4167 19.4503 94.122 19.979C93.8273 20.5077 93.42 20.928 92.9 21.24C92.38 21.552 91.782 21.708 91.106 21.708ZM91.106 20.421C91.47 20.421 91.808 20.3343 92.12 20.161C92.432 19.979 92.6833 19.7233 92.874 19.394C93.0733 19.056 93.173 18.653 93.173 18.185C93.173 17.717 93.0733 17.3183 92.874 16.989C92.6833 16.651 92.432 16.3953 92.12 16.222C91.808 16.04 91.47 15.949 91.106 15.949C90.742 15.949 90.3997 16.04 90.079 16.222C89.767 16.3953 89.5113 16.651 89.312 16.989C89.1213 17.3183 89.026 17.717 89.026 18.185C89.026 18.653 89.1213 19.056 89.312 19.394C89.5113 19.7233 89.767 19.979 90.079 20.161C90.3997 20.3343 90.742 20.421 91.106 20.421ZM98.8471 24.516C98.2664 24.516 97.7638 24.4207 97.3391 24.23C96.9231 24.048 96.5851 23.8097 96.3251 23.515C96.0651 23.229 95.8788 22.9343 95.7661 22.631L97.0661 22.085C97.2048 22.4317 97.4258 22.7133 97.7291 22.93C98.0411 23.1553 98.4138 23.268 98.8471 23.268C99.4538 23.268 99.9304 23.086 100.277 22.722C100.632 22.358 100.81 21.8423 100.81 21.175V20.538H100.732C100.524 20.85 100.234 21.1013 99.8611 21.292C99.4971 21.474 99.0811 21.565 98.6131 21.565C98.0498 21.565 97.5341 21.422 97.0661 21.136C96.5981 20.85 96.2211 20.4513 95.9351 19.94C95.6491 19.42 95.5061 18.8133 95.5061 18.12C95.5061 17.418 95.6491 16.8113 95.9351 16.3C96.2211 15.78 96.5981 15.377 97.0661 15.091C97.5341 14.805 98.0498 14.662 98.6131 14.662C99.0811 14.662 99.4971 14.7573 99.8611 14.948C100.234 15.1387 100.524 15.39 100.732 15.702H100.81V14.87H102.149V21.149C102.149 21.8683 102.006 22.4793 101.72 22.982C101.443 23.4847 101.057 23.866 100.563 24.126C100.069 24.386 99.4971 24.516 98.8471 24.516ZM98.8601 20.291C99.2068 20.291 99.5274 20.2087 99.8221 20.044C100.117 19.8707 100.355 19.6237 100.537 19.303C100.719 18.9737 100.81 18.5793 100.81 18.12C100.81 17.6433 100.719 17.2447 100.537 16.924C100.355 16.5947 100.117 16.3477 99.8221 16.183C99.5274 16.0183 99.2068 15.936 98.8601 15.936C98.5134 15.936 98.1884 16.0227 97.8851 16.196C97.5904 16.3607 97.3521 16.6033 97.1701 16.924C96.9881 17.2447 96.8971 17.6433 96.8971 18.12C96.8971 18.588 96.9881 18.9867 97.1701 19.316C97.3521 19.6367 97.5904 19.8793 97.8851 20.044C98.1884 20.2087 98.5134 20.291 98.8601 20.291ZM103.805 21.5V12.192H105.209V21.5H103.805ZM109.829 21.708C109.179 21.708 108.599 21.5563 108.087 21.253C107.576 20.9497 107.173 20.5337 106.878 20.005C106.592 19.4763 106.449 18.874 106.449 18.198C106.449 17.5653 106.588 16.9803 106.865 16.443C107.143 15.9057 107.528 15.4767 108.022 15.156C108.525 14.8267 109.101 14.662 109.751 14.662C110.436 14.662 111.017 14.8093 111.493 15.104C111.979 15.3987 112.347 15.8017 112.598 16.313C112.85 16.8243 112.975 17.4007 112.975 18.042C112.975 18.1373 112.971 18.224 112.962 18.302C112.962 18.38 112.958 18.4407 112.949 18.484H107.827C107.897 19.1427 108.126 19.6367 108.516 19.966C108.915 20.2953 109.366 20.46 109.868 20.46C110.319 20.46 110.692 20.3603 110.986 20.161C111.281 19.953 111.515 19.6973 111.688 19.394L112.845 19.953C112.559 20.473 112.169 20.8977 111.675 21.227C111.181 21.5477 110.566 21.708 109.829 21.708ZM109.764 15.858C109.296 15.858 108.898 16.001 108.568 16.287C108.239 16.573 108.018 16.9543 107.905 17.431H111.584C111.567 17.2057 111.493 16.9717 111.363 16.729C111.233 16.4863 111.034 16.2827 110.765 16.118C110.505 15.9447 110.172 15.858 109.764 15.858ZM118.69 21.5L116.194 12.192H117.78L119.262 18.237L119.418 19.043H119.496L119.691 18.237L121.563 12.192H122.993L124.787 18.237L124.982 19.03H125.06L125.216 18.237L126.698 12.192H128.271L125.814 21.5H124.306L122.525 15.325L122.317 14.454H122.239L122.018 15.325L120.159 21.5H118.69ZM130.881 21.708C130.405 21.708 129.98 21.617 129.607 21.435C129.235 21.2443 128.944 20.98 128.736 20.642C128.528 20.304 128.424 19.9183 128.424 19.485C128.424 19.017 128.546 18.6183 128.788 18.289C129.04 17.951 129.373 17.6953 129.789 17.522C130.205 17.3487 130.665 17.262 131.167 17.262C131.583 17.262 131.947 17.301 132.259 17.379C132.58 17.457 132.823 17.5393 132.987 17.626V17.275C132.987 16.8417 132.831 16.495 132.519 16.235C132.207 15.975 131.804 15.845 131.31 15.845C130.972 15.845 130.652 15.923 130.348 16.079C130.045 16.2263 129.802 16.43 129.62 16.69L128.658 15.949C128.944 15.5503 129.321 15.2383 129.789 15.013C130.266 14.779 130.786 14.662 131.349 14.662C132.311 14.662 133.052 14.9003 133.572 15.377C134.092 15.845 134.352 16.5037 134.352 17.353V21.5H132.987V20.681H132.909C132.736 20.9497 132.476 21.188 132.129 21.396C131.783 21.604 131.367 21.708 130.881 21.708ZM131.128 20.564C131.492 20.564 131.813 20.4773 132.09 20.304C132.368 20.1307 132.584 19.9053 132.74 19.628C132.905 19.342 132.987 19.0343 132.987 18.705C132.788 18.5923 132.554 18.5013 132.285 18.432C132.017 18.354 131.731 18.315 131.427 18.315C130.855 18.315 130.448 18.432 130.205 18.666C129.963 18.8913 129.841 19.1687 129.841 19.498C129.841 19.81 129.958 20.0657 130.192 20.265C130.426 20.4643 130.738 20.564 131.128 20.564ZM135.911 21.5V12.192H137.315V21.5H135.911ZM138.983 21.5V12.192H140.387V21.5H138.983ZM145.008 21.708C144.358 21.708 143.777 21.5563 143.266 21.253C142.755 20.9497 142.352 20.5337 142.057 20.005C141.771 19.4763 141.628 18.874 141.628 18.198C141.628 17.5653 141.767 16.9803 142.044 16.443C142.321 15.9057 142.707 15.4767 143.201 15.156C143.704 14.8267 144.28 14.662 144.93 14.662C145.615 14.662 146.195 14.8093 146.672 15.104C147.157 15.3987 147.526 15.8017 147.777 16.313C148.028 16.8243 148.154 17.4007 148.154 18.042C148.154 18.1373 148.15 18.224 148.141 18.302C148.141 18.38 148.137 18.4407 148.128 18.484H143.006C143.075 19.1427 143.305 19.6367 143.695 19.966C144.094 20.2953 144.544 20.46 145.047 20.46C145.498 20.46 145.87 20.3603 146.165 20.161C146.46 19.953 146.694 19.6973 146.867 19.394L148.024 19.953C147.738 20.473 147.348 20.8977 146.854 21.227C146.36 21.5477 145.745 21.708 145.008 21.708ZM144.943 15.858C144.475 15.858 144.076 16.001 143.747 16.287C143.418 16.573 143.197 16.9543 143.084 17.431H146.763C146.746 17.2057 146.672 16.9717 146.542 16.729C146.412 16.4863 146.213 16.2827 145.944 16.118C145.684 15.9447 145.35 15.858 144.943 15.858ZM149.968 19.576V16.092H148.811V14.87H149.968V12.998H151.372V14.87H152.997V16.092H151.372V19.277C151.372 19.6063 151.437 19.8577 151.567 20.031C151.706 20.2043 151.936 20.291 152.256 20.291C152.421 20.291 152.56 20.2693 152.672 20.226C152.794 20.1827 152.915 20.122 153.036 20.044V21.409C152.889 21.4697 152.733 21.5173 152.568 21.552C152.404 21.5867 152.209 21.604 151.983 21.604C151.368 21.604 150.878 21.4263 150.514 21.071C150.15 20.707 149.968 20.2087 149.968 19.576Z" fill="white"/>
<rect x="0.5" y="0.5" width="201" height="54" rx="27" stroke="#747775"/>
<defs>
<linearGradient id="paint0_linear_1819_24510" x1="37.2843" y1="34.0448" x2="18.7823" y2="55.7227" gradientUnits="userSpaceOnUse">
<stop stop-color="#4285F4"/>
<stop offset="1" stop-color="#1B74E8"/>
</linearGradient>
</defs>
</svg>
